X:443
T: Yisui chu sheng ersui n
N: C1478
O: China, Hunan, Jiahe
S: I, 566]
R: Wuge, Fengsuge, Banjia ge]
M: 3/4
L: 1/16
K: D
e2fed6B2 | B2d2e8 | B4d8 | e2d2f8
e4f8 | f2edd8 | B2d2e2f2e2d2 | d12
f4f6e2 | f4e2d4B2 | B8d4 | e2f2e2d2z6
f4e6d2 | B8d4 | e2d2B2A2B2z2
e6f2e2d2 | B8d4
f4e6d2 | B2d2e2d2B2A2 | B12

